assets/svg/1F3CA.svg

<svg xmlns="http://www.w3.org/2000/svg" viewBox="0 0 64 64" enable-background="new 0 0 64 64"><path fill="#be1e2d" d="m19.805 30.27c0 0 12.285-8.097 23.05 1.353 0 0 21.234 9.897 15.09 21.04l-13.725-3.836c0 0-.174-4.563-4.348-4.729.0001-.0001-27.27 2.615-20.06-13.829"/><path fill="#f69220" d="m22.27 31.05c-2.236 5.04-7.378 7.657-11.482 5.85-4.122-1.819-5.662-7.383-3.432-12.428 2.225-5.05 7.373-7.657 11.485-5.842 4.122 1.818 5.654 7.391 3.429 12.42"/><path fill="#119ad1" d="m17.951 23.555c2.411 1.058 4.228 2.813 5.418 4.858.776-4.318-.874-8.478-4.369-10.02-4.203-1.858-9.437.769-11.778 5.865 2.999-1.929 7.03-2.342 10.729-.707"/><path fill="#ee4036" d="m35.578 31.15c-4.86 6.257-10.344-.092-10.154-2.739.038-.537.172-1.329.208-1.549.033-1.154.179-2.17.193-2.316.063-13.243-18.515-12.39-18.515-12.39-6.483.077-3.946-3.641-3.946-3.641 2.536-1.98 17.285 1.246 17.285 1.246 6.229.881 10.969 10.673 13.08 15.879l0 0c1.201 1.711 2.796 4.287 1.847 5.51"/><path fill="#00adee" d="m64.01 57.02c0 3.813-3.087 6.905-6.898 6.905h-50.22c-3.808.0001-6.898-3.091-6.898-6.905v-9.938c0-3.812 3.09-6.901 6.898-6.901h50.21c3.813 0 6.899 3.091 6.899 6.901l.002 9.938 0 0"/><path fill="#f69220" d="m9.989 11.451c-.968 2.185-3.389 3.235-5.398 2.348-2.02-.891-2.881-3.386-1.913-5.574.964-2.187 3.383-3.232 5.399-2.345 2.02.891 2.876 3.391 1.912 5.571"/><g fill="#8ad2ec"><path opacity=".52" d="m8.82 52.09c.341.019.675.05 1.022.05 4.581 0 8.777-1.582 12.12-4.207-4.01.796-12.65 3.956-13.14 4.157"/><path opacity=".52" d="m50.34 60.54c-.761.039-1.51.109-2.28.109-10.232 0-19.6-3.535-27.06-9.396 8.95 1.781 28.25 8.834 29.338 9.287"/><path opacity=".52" d="m55.18 49.2c-.389.022-.767.056-1.16.056-5.166 0-9.906-1.785-13.681-4.75 4.534.9 14.29 4.467 14.841 4.694"/></g></svg>

<?xml version="1.0" encoding="utf-8"?>
<!-- Generator: Adobe Illustrator 16.0.0, SVG Export Plug-In . SVG Version: 6.00 Build 0)  -->
<!DOCTYPE svg PUBLIC "-//W3C//DTD SVG 1.1//EN" "http://www.w3.org/Graphics/SVG/1.1/DTD/svg11.dtd">
<svg version="1.1" id="Layer_1" xmlns="http://www.w3.org/2000/svg" xmlns:xlink="http://www.w3.org/1999/xlink" x="0px" y="0px"
	 width="64px" height="64px" viewBox="0 0 64 64" enable-background="new 0 0 64 64" xml:space="preserve">
<g>
	<path fill="#BE1E2D" d="M19.805,30.27c0,0,12.285-8.097,23.048,1.353c0,0,21.234,9.897,15.088,21.041l-13.725-3.836
		c0,0-0.174-4.563-4.348-4.729C39.869,44.098,12.595,46.714,19.805,30.27z"/>
	<path fill="#F69220" d="M22.27,31.051c-2.236,5.043-7.378,7.657-11.482,5.85c-4.122-1.819-5.662-7.383-3.432-12.428
		c2.225-5.047,7.373-7.657,11.485-5.842C22.963,20.449,24.495,26.022,22.27,31.051z"/>
	<path fill="#119AD1" d="M17.951,23.555c2.411,1.058,4.228,2.813,5.418,4.858c0.776-4.318-0.874-8.478-4.369-10.016
		c-4.203-1.858-9.437,0.769-11.778,5.865C10.221,22.333,14.251,21.92,17.951,23.555z"/>
	<path fill="#EE4036" d="M35.578,31.151c-4.86,6.257-10.344-0.092-10.154-2.739c0.038-0.537,0.172-1.329,0.208-1.549
		c0.033-1.154,0.179-2.17,0.193-2.316C25.888,11.304,7.31,12.157,7.31,12.157c-6.483,0.077-3.946-3.641-3.946-3.641
		C5.9,6.536,20.649,9.762,20.649,9.762c6.229,0.881,10.969,10.673,13.082,15.879l0,0C34.932,27.352,36.527,29.928,35.578,31.151z"/>
	<path fill="#00ADEE" d="M64.012,57.021c0,3.813-3.087,6.905-6.898,6.905H6.898C3.09,63.927,0,60.835,0,57.021v-9.938
		c0-3.812,3.09-6.901,6.898-6.901h50.213c3.813,0,6.899,3.091,6.899,6.901L64.012,57.021L64.012,57.021z"/>
	<path fill="#F69220" d="M9.989,11.451c-0.968,2.185-3.389,3.235-5.398,2.348c-2.022-0.891-2.881-3.386-1.913-5.574
		C3.642,6.038,6.061,4.993,8.077,5.88C10.098,6.771,10.953,9.271,9.989,11.451z"/>
	<path opacity="0.52" fill="#8AD2EC" enable-background="new    " d="M8.82,52.089c0.341,0.019,0.675,0.05,1.022,0.05
		c4.581,0,8.777-1.582,12.116-4.207C17.951,48.728,9.308,51.888,8.82,52.089z"/>
	<path opacity="0.52" fill="#8AD2EC" enable-background="new    " d="M50.341,60.544c-0.761,0.039-1.51,0.109-2.28,0.109
		c-10.232,0-19.6-3.535-27.058-9.396C29.953,53.038,49.256,60.091,50.341,60.544z"/>
	<path opacity="0.52" fill="#8AD2EC" enable-background="new    " d="M55.182,49.195c-0.389,0.022-0.767,0.056-1.16,0.056
		c-5.166,0-9.906-1.785-13.681-4.75C44.875,45.401,54.631,48.968,55.182,49.195z"/>
</g>
</svg>
